public/chain_ex_func.svg

<?xml version='1.0' encoding='UTF-8'?>
<!-- Generated by CodeCogs with dvisvgm 3.0.3 -->
<svg version='1.1' xmlns='http://www.w3.org/2000/svg' xmlns:xlink='http://www.w3.org/1999/xlink' width='201.008537pt' height='27.916491pt' viewBox='-.244117 -.227993 201.008537 27.916491'>
<defs>
<path id='g0-0' d='M7.878456-2.749689C8.081694-2.749689 8.296887-2.749689 8.296887-2.988792S8.081694-3.227895 7.878456-3.227895H1.41071C1.207472-3.227895 .992279-3.227895 .992279-2.988792S1.207472-2.749689 1.41071-2.749689H7.878456Z'/>
<path id='g0-3' d='M3.287671-5.104857C3.299626-5.272229 3.299626-5.559153 2.988792-5.559153C2.797509-5.559153 2.642092-5.403736 2.677958-5.248319V-5.092902L2.84533-3.239851L1.315068-4.351681C1.207472-4.411457 1.183562-4.435367 1.099875-4.435367C.932503-4.435367 .777086-4.267995 .777086-4.100623C.777086-3.90934 .896638-3.861519 1.016189-3.801743L2.713823-2.988792L1.06401-2.187796C.872727-2.092154 .777086-2.044334 .777086-1.865006S.932503-1.530262 1.099875-1.530262C1.183562-1.530262 1.207472-1.530262 1.506351-1.75741L2.84533-2.725778L2.666002-.71731C2.666002-.466252 2.881196-.406476 2.976837-.406476C3.120299-.406476 3.299626-.490162 3.299626-.71731L3.120299-2.725778L4.65056-1.613948C4.758157-1.554172 4.782067-1.530262 4.865753-1.530262C5.033126-1.530262 5.188543-1.697634 5.188543-1.865006C5.188543-2.044334 5.080946-2.10411 4.937484-2.175841C4.220174-2.534496 4.196264-2.534496 3.251806-2.976837L4.901619-3.777833C5.092902-3.873474 5.188543-3.921295 5.188543-4.100623S5.033126-4.435367 4.865753-4.435367C4.782067-4.435367 4.758157-4.435367 4.459278-4.208219L3.120299-3.239851L3.287671-5.104857Z'/>
<path id='g2-40' d='M3.88543 2.905106C3.88543 2.86924 3.88543 2.84533 3.682192 2.642092C2.486675 1.43462 1.817186-.537983 1.817186-2.976837C1.817186-5.296139 2.379078-7.292653 3.765878-8.703362C3.88543-8.810959 3.88543-8.834869 3.88543-8.870735C3.88543-8.942466 3.825654-8.966376 3.777833-8.966376C3.622416-8.966376 2.642092-8.105604 2.056289-6.933998C1.446575-5.726526 1.171606-4.447323 1.171606-2.976837C1.171606-1.912827 1.338979-.490162 1.960648 .789041C2.666002 2.223661 3.646326 3.000747 3.777833 3.000747C3.825654 3.000747 3.88543 2.976837 3.88543 2.905106Z'/>
<path id='g2-41' d='M3.371357-2.976837C3.371357-3.88543 3.251806-5.36787 2.582316-6.75467C1.876961-8.18929 .896638-8.966376 .765131-8.966376C.71731-8.966376 .657534-8.942466 .657534-8.870735C.657534-8.834869 .657534-8.810959 .860772-8.607721C2.056289-7.400249 2.725778-5.427646 2.725778-2.988792C2.725778-.669489 2.163885 1.327024 .777086 2.737733C.657534 2.84533 .657534 2.86924 .657534 2.905106C.657534 2.976837 .71731 3.000747 .765131 3.000747C.920548 3.000747 1.900872 2.139975 2.486675 .968369C3.096389-.251059 3.371357-1.542217 3.371357-2.976837Z'/>
<path id='g2-61' d='M8.069738-3.873474C8.237111-3.873474 8.452304-3.873474 8.452304-4.088667C8.452304-4.315816 8.249066-4.315816 8.069738-4.315816H1.028144C.860772-4.315816 .645579-4.315816 .645579-4.100623C.645579-3.873474 .848817-3.873474 1.028144-3.873474H8.069738ZM8.069738-1.649813C8.237111-1.649813 8.452304-1.649813 8.452304-1.865006C8.452304-2.092154 8.249066-2.092154 8.069738-2.092154H1.028144C.860772-2.092154 .645579-2.092154 .645579-1.876961C.645579-1.649813 .848817-1.649813 1.028144-1.649813H8.069738Z'/>
<path id='g1-99' d='M4.674471-4.495143C4.447323-4.495143 4.339726-4.495143 4.172354-4.351681C4.100623-4.291905 3.969116-4.112578 3.969116-3.921295C3.969116-3.682192 4.148443-3.53873 4.375592-3.53873C4.662516-3.53873 4.985305-3.777833 4.985305-4.25604C4.985305-4.829888 4.435367-5.272229 3.610461-5.272229C2.044334-5.272229 .478207-3.56264 .478207-1.865006C.478207-.824907 1.123786 .119552 2.343213 .119552C3.969116 .119552 4.99726-1.147696 4.99726-1.303113C4.99726-1.374844 4.925529-1.43462 4.877709-1.43462C4.841843-1.43462 4.829888-1.422665 4.722291-1.315068C3.957161-.298879 2.82142-.119552 2.367123-.119552C1.542217-.119552 1.279203-.836862 1.279203-1.43462C1.279203-1.853051 1.482441-3.012702 1.912827-3.825654C2.223661-4.387547 2.86924-5.033126 3.622416-5.033126C3.777833-5.033126 4.435367-5.009215 4.674471-4.495143Z'/>
<path id='g1-100' d='M6.01345-7.998007C6.025405-8.045828 6.049315-8.117559 6.049315-8.177335C6.049315-8.296887 5.929763-8.296887 5.905853-8.296887C5.893898-8.296887 5.308095-8.249066 5.248319-8.237111C5.045081-8.225156 4.865753-8.201245 4.65056-8.18929C4.351681-8.16538 4.267995-8.153425 4.267995-7.938232C4.267995-7.81868 4.363636-7.81868 4.531009-7.81868C5.116812-7.81868 5.128767-7.711083 5.128767-7.591532C5.128767-7.519801 5.104857-7.424159 5.092902-7.388294L4.363636-4.483188C4.23213-4.794022 3.90934-5.272229 3.287671-5.272229C1.936737-5.272229 .478207-3.526775 .478207-1.75741C.478207-.573848 1.171606 .119552 1.984558 .119552C2.642092 .119552 3.203985-.394521 3.53873-.789041C3.658281-.083686 4.220174 .119552 4.578829 .119552S5.224408-.095641 5.439601-.526027C5.630884-.932503 5.798257-1.661768 5.798257-1.709589C5.798257-1.769365 5.750436-1.817186 5.678705-1.817186C5.571108-1.817186 5.559153-1.75741 5.511333-1.578082C5.332005-.872727 5.104857-.119552 4.614695-.119552C4.267995-.119552 4.244085-.430386 4.244085-.669489C4.244085-.71731 4.244085-.968369 4.327771-1.303113L6.01345-7.998007ZM3.598506-1.422665C3.53873-1.219427 3.53873-1.195517 3.371357-.968369C3.108344-.633624 2.582316-.119552 2.020423-.119552C1.530262-.119552 1.255293-.561893 1.255293-1.267248C1.255293-1.924782 1.625903-3.263761 1.853051-3.765878C2.259527-4.60274 2.82142-5.033126 3.287671-5.033126C4.076712-5.033126 4.23213-4.052802 4.23213-3.957161C4.23213-3.945205 4.196264-3.789788 4.184309-3.765878L3.598506-1.422665Z'/>
<path id='g1-105' d='M3.383313-1.709589C3.383313-1.769365 3.335492-1.817186 3.263761-1.817186C3.156164-1.817186 3.144209-1.78132 3.084433-1.578082C2.773599-.490162 2.283437-.119552 1.888917-.119552C1.745455-.119552 1.578082-.155417 1.578082-.514072C1.578082-.836862 1.721544-1.195517 1.853051-1.554172L2.689913-3.777833C2.725778-3.873474 2.809465-4.088667 2.809465-4.315816C2.809465-4.817933 2.450809-5.272229 1.865006-5.272229C.765131-5.272229 .32279-3.53873 .32279-3.443088C.32279-3.395268 .37061-3.335492 .454296-3.335492C.561893-3.335492 .573848-3.383313 .621669-3.550685C.908593-4.554919 1.362889-5.033126 1.829141-5.033126C1.936737-5.033126 2.139975-5.021171 2.139975-4.638605C2.139975-4.327771 1.984558-3.93325 1.888917-3.670237L1.052055-1.446575C.980324-1.255293 .908593-1.06401 .908593-.848817C.908593-.310834 1.279203 .119552 1.853051 .119552C2.952927 .119552 3.383313-1.625903 3.383313-1.709589ZM3.287671-7.460025C3.287671-7.639352 3.144209-7.854545 2.881196-7.854545C2.606227-7.854545 2.295392-7.591532 2.295392-7.280697C2.295392-6.981818 2.546451-6.886177 2.689913-6.886177C3.012702-6.886177 3.287671-7.197011 3.287671-7.460025Z'/>
<path id='g1-110' d='M2.462765-3.502864C2.486675-3.574595 2.785554-4.172354 3.227895-4.554919C3.53873-4.841843 3.945205-5.033126 4.411457-5.033126C4.889664-5.033126 5.057036-4.674471 5.057036-4.196264C5.057036-3.514819 4.566874-2.15193 4.327771-1.506351C4.220174-1.219427 4.160399-1.06401 4.160399-.848817C4.160399-.310834 4.531009 .119552 5.104857 .119552C6.216687 .119552 6.635118-1.637858 6.635118-1.709589C6.635118-1.769365 6.587298-1.817186 6.515567-1.817186C6.40797-1.817186 6.396015-1.78132 6.336239-1.578082C6.06127-.597758 5.606974-.119552 5.140722-.119552C5.021171-.119552 4.829888-.131507 4.829888-.514072C4.829888-.812951 4.961395-1.171606 5.033126-1.338979C5.272229-1.996513 5.774346-3.335492 5.774346-4.016936C5.774346-4.734247 5.355915-5.272229 4.447323-5.272229C3.383313-5.272229 2.82142-4.519054 2.606227-4.220174C2.570361-4.901619 2.080199-5.272229 1.554172-5.272229C1.171606-5.272229 .908593-5.045081 .705355-4.638605C.490162-4.208219 .32279-3.490909 .32279-3.443088S.37061-3.335492 .454296-3.335492C.549938-3.335492 .561893-3.347447 .633624-3.622416C.824907-4.351681 1.0401-5.033126 1.518306-5.033126C1.793275-5.033126 1.888917-4.841843 1.888917-4.483188C1.888917-4.220174 1.769365-3.753923 1.685679-3.383313L1.350934-2.092154C1.303113-1.865006 1.171606-1.327024 1.111831-1.111831C1.028144-.800996 .896638-.239103 .896638-.179328C.896638-.011955 1.028144 .119552 1.207472 .119552C1.350934 .119552 1.518306 .047821 1.613948-.131507C1.637858-.191283 1.745455-.609714 1.80523-.848817L2.068244-1.924782L2.462765-3.502864Z'/>
<path id='g1-111' d='M5.451557-3.287671C5.451557-4.423412 4.710336-5.272229 3.622416-5.272229C2.044334-5.272229 .490162-3.550685 .490162-1.865006C.490162-.729265 1.231382 .119552 2.319303 .119552C3.90934 .119552 5.451557-1.601993 5.451557-3.287671ZM2.331258-.119552C1.733499-.119552 1.291158-.597758 1.291158-1.43462C1.291158-1.984558 1.578082-3.203985 1.912827-3.801743C2.450809-4.722291 3.120299-5.033126 3.610461-5.033126C4.196264-5.033126 4.65056-4.554919 4.65056-3.718057C4.65056-3.239851 4.399502-1.960648 3.945205-1.231382C3.455044-.430386 2.797509-.119552 2.331258-.119552Z'/>
<path id='g1-115' d='M2.725778-2.391034C2.929016-2.355168 3.251806-2.283437 3.323537-2.271482C3.478954-2.223661 4.016936-2.032379 4.016936-1.458531C4.016936-1.08792 3.682192-.119552 2.295392-.119552C2.044334-.119552 1.147696-.155417 .908593-.812951C1.3868-.753176 1.625903-1.123786 1.625903-1.3868C1.625903-1.637858 1.458531-1.769365 1.219427-1.769365C.956413-1.769365 .609714-1.566127 .609714-1.028144C.609714-.32279 1.327024 .119552 2.283437 .119552C4.100623 .119552 4.638605-1.219427 4.638605-1.841096C4.638605-2.020423 4.638605-2.355168 4.25604-2.737733C3.957161-3.024658 3.670237-3.084433 3.024658-3.21594C2.701868-3.287671 2.187796-3.395268 2.187796-3.93325C2.187796-4.172354 2.402989-5.033126 3.53873-5.033126C4.040847-5.033126 4.531009-4.841843 4.65056-4.411457C4.124533-4.411457 4.100623-3.957161 4.100623-3.945205C4.100623-3.694147 4.327771-3.622416 4.435367-3.622416C4.60274-3.622416 4.937484-3.753923 4.937484-4.25604S4.483188-5.272229 3.550685-5.272229C1.984558-5.272229 1.566127-4.040847 1.566127-3.550685C1.566127-2.642092 2.450809-2.450809 2.725778-2.391034Z'/>
<path id='g1-120' d='M5.66675-4.877709C5.284184-4.805978 5.140722-4.519054 5.140722-4.291905C5.140722-4.004981 5.36787-3.90934 5.535243-3.90934C5.893898-3.90934 6.144956-4.220174 6.144956-4.542964C6.144956-5.045081 5.571108-5.272229 5.068991-5.272229C4.339726-5.272229 3.93325-4.554919 3.825654-4.327771C3.550685-5.224408 2.809465-5.272229 2.594271-5.272229C1.374844-5.272229 .729265-3.706102 .729265-3.443088C.729265-3.395268 .777086-3.335492 .860772-3.335492C.956413-3.335492 .980324-3.407223 1.004234-3.455044C1.41071-4.782067 2.211706-5.033126 2.558406-5.033126C3.096389-5.033126 3.203985-4.531009 3.203985-4.244085C3.203985-3.981071 3.132254-3.706102 2.988792-3.132254L2.582316-1.494396C2.402989-.777086 2.056289-.119552 1.422665-.119552C1.362889-.119552 1.06401-.119552 .812951-.274969C1.243337-.358655 1.338979-.71731 1.338979-.860772C1.338979-1.099875 1.159651-1.243337 .932503-1.243337C.645579-1.243337 .334745-.992279 .334745-.609714C.334745-.107597 .896638 .119552 1.41071 .119552C1.984558 .119552 2.391034-.334745 2.642092-.824907C2.833375-.119552 3.431133 .119552 3.873474 .119552C5.092902 .119552 5.738481-1.446575 5.738481-1.709589C5.738481-1.769365 5.69066-1.817186 5.618929-1.817186C5.511333-1.817186 5.499377-1.75741 5.463512-1.661768C5.140722-.609714 4.447323-.119552 3.90934-.119552C3.490909-.119552 3.263761-.430386 3.263761-.920548C3.263761-1.183562 3.311582-1.374844 3.502864-2.163885L3.921295-3.789788C4.100623-4.507098 4.507098-5.033126 5.057036-5.033126C5.080946-5.033126 5.415691-5.033126 5.66675-4.877709Z'/>
</defs>
<g id='page1' transform='matrix(1.13 0 0 1.13 -65.34204 -61.026004)'>
<use x='60.934824' y='62.100436' xlink:href='#g1-100'/>
<rect x='57.608781' y='66.960309' height='.478187' width='12.734776'/>
<use x='57.608781' y='78.388857' xlink:href='#g1-100'/>
<use x='63.691474' y='78.388857' xlink:href='#g1-120'/>
<use x='71.539071' y='70.188195' xlink:href='#g1-115'/>
<use x='77.053077' y='70.188195' xlink:href='#g1-105'/>
<use x='81.046509' y='70.188195' xlink:href='#g1-110'/>
<use x='88.034115' y='70.188195' xlink:href='#g2-40'/>
<use x='92.58644' y='70.188195' xlink:href='#g1-99'/>
<use x='97.624429' y='70.188195' xlink:href='#g1-111'/>
<use x='103.251866' y='70.188195' xlink:href='#g1-115'/>
<use x='108.765872' y='70.188195' xlink:href='#g1-120'/>
<use x='115.417959' y='70.188195' xlink:href='#g2-41'/>
<use x='123.291114' y='70.188195' xlink:href='#g2-61'/>
<use x='135.716595' y='70.188195' xlink:href='#g1-99'/>
<use x='140.754584' y='70.188195' xlink:href='#g1-111'/>
<use x='146.382021' y='70.188195' xlink:href='#g1-115'/>
<use x='151.896027' y='70.188195' xlink:href='#g2-40'/>
<use x='156.448353' y='70.188195' xlink:href='#g1-99'/>
<use x='161.486341' y='70.188195' xlink:href='#g1-111'/>
<use x='167.113779' y='70.188195' xlink:href='#g1-115'/>
<use x='172.627785' y='70.188195' xlink:href='#g1-120'/>
<use x='179.279872' y='70.188195' xlink:href='#g2-41'/>
<use x='186.488861' y='70.188195' xlink:href='#g0-3'/>
<use x='195.123131' y='70.188195' xlink:href='#g2-40'/>
<use x='199.675457' y='70.188195' xlink:href='#g0-0'/>
<use x='208.973954' y='70.188195' xlink:href='#g1-115'/>
<use x='214.48796' y='70.188195' xlink:href='#g1-105'/>
<use x='218.481392' y='70.188195' xlink:href='#g1-110'/>
<use x='225.468998' y='70.188195' xlink:href='#g1-120'/>
<use x='232.121085' y='70.188195' xlink:href='#g2-41'/>
</g>
</svg>

<svg xmlns="http://www.w3.org/2000/svg" xmlns:xlink="http://www.w3.org/1999/xlink" width="268.01" height="37.22" viewBox="-0.24 -0.23 201.01 27.92"><defs><path id="l" d="M7.878-2.75c.204 0 .419 0 .419-.239s-.215-.239-.419-.239H1.411c-.204 0-.419 0-.419.24s.215.238.419.238z"/><path id="k" d="M3.288-5.105c.012-.167.012-.454-.3-.454-.19 0-.346.155-.31.31v.156l.167 1.853-1.53-1.112c-.108-.06-.131-.083-.215-.083-.167 0-.323.167-.323.334 0 .192.12.24.24.3l1.697.812-1.65.801c-.191.096-.287.144-.287.323s.156.335.323.335c.084 0 .107 0 .406-.227l1.34-.969-.18 2.009c0 .25.215.31.31.31.144 0 .324-.083.324-.31l-.18-2.009 1.53 1.112c.108.06.132.084.216.084.167 0 .323-.168.323-.335 0-.18-.108-.24-.252-.31-.717-.36-.74-.36-1.685-.802l1.65-.8c.19-.096.287-.144.287-.324s-.156-.334-.323-.334c-.084 0-.108 0-.407.227L3.12-3.24z"/><path id="f" d="M3.885 2.905c0-.036 0-.06-.203-.263-1.195-1.207-1.865-3.18-1.865-5.619 0-2.32.562-4.316 1.949-5.726.12-.108.12-.132.12-.168 0-.071-.06-.095-.108-.095-.156 0-1.136.86-1.722 2.032-.61 1.207-.884 2.487-.884 3.957 0 1.064.167 2.487.789 3.766.705 1.435 1.685 2.212 1.817 2.212.048 0 .107-.024.107-.096"/><path id="i" d="M3.371-2.977c0-.908-.12-2.39-.789-3.778C1.877-8.189.897-8.966.765-8.966c-.048 0-.107.024-.107.095 0 .036 0 .06.203.263 1.195 1.208 1.865 3.18 1.865 5.62 0 2.319-.562 4.315-1.949 5.726-.12.107-.12.131-.12.167 0 .072.06.096.108.096C.921 3 1.901 2.14 2.487.968c.61-1.22.884-2.51.884-3.945"/><path id="j" d="M8.07-3.873c.167 0 .382 0 .382-.216 0-.227-.203-.227-.382-.227H1.028c-.167 0-.382 0-.382.215 0 .228.203.228.382.228zm0 2.223c.167 0 .382 0 .382-.215 0-.227-.203-.227-.382-.227H1.028c-.167 0-.382 0-.382.215 0 .227.203.227.382.227z"/><path id="g" d="M4.674-4.495c-.227 0-.334 0-.502.143a.64.64 0 0 0-.203.43c0 .24.18.383.407.383.287 0 .61-.239.61-.717 0-.574-.55-1.016-1.376-1.016-1.566 0-3.132 1.71-3.132 3.407C.478-.825 1.124.12 2.343.12c1.626 0 2.654-1.268 2.654-1.423 0-.072-.071-.132-.12-.132-.035 0-.047.012-.155.12C3.957-.3 2.822-.12 2.367-.12c-.825 0-1.088-.717-1.088-1.315 0-.418.203-1.578.634-2.39.31-.563.956-1.208 1.71-1.208.155 0 .812.024 1.051.538"/><path id="a" d="M6.013-7.998c.012-.048.036-.12.036-.18 0-.119-.12-.119-.143-.119-.012 0-.598.048-.658.06-.203.012-.382.036-.597.048-.3.024-.383.036-.383.25 0 .12.096.12.263.12.586 0 .598.108.598.227a.8.8 0 0 1-.036.204l-.73 2.905c-.13-.311-.454-.79-1.075-.79-1.351 0-2.81 1.746-2.81 3.516C.478-.574 1.172.12 1.985.12c.657 0 1.219-.515 1.554-.909.12.705.681.909 1.04.909s.645-.216.86-.646c.192-.407.36-1.136.36-1.184 0-.06-.049-.107-.12-.107-.108 0-.12.06-.168.239-.179.705-.406 1.458-.896 1.458-.347 0-.37-.31-.37-.55 0-.047 0-.298.083-.633zM3.6-1.423c-.06.204-.06.227-.228.455-.263.334-.789.848-1.35.848-.49 0-.766-.442-.766-1.147 0-.658.37-1.997.598-2.499.407-.837.968-1.267 1.435-1.267.789 0 .944.98.944 1.076 0 .012-.036.167-.048.191z"/><path id="d" d="M3.383-1.71c0-.06-.048-.107-.12-.107-.107 0-.119.036-.179.239C2.774-.49 2.284-.12 1.89-.12c-.144 0-.31-.035-.31-.394 0-.323.143-.682.274-1.04l.837-2.224c.036-.095.12-.31.12-.538 0-.502-.36-.956-.945-.956-1.1 0-1.542 1.733-1.542 1.829 0 .048.048.108.131.108.108 0 .12-.048.168-.216.287-1.004.74-1.482 1.207-1.482.108 0 .311.012.311.394 0 .311-.155.706-.251.969l-.837 2.223C.98-1.255.91-1.064.91-.849c0 .538.37.969.944.969 1.1 0 1.53-1.746 1.53-1.83m-.095-5.75a.4.4 0 0 0-.407-.395c-.275 0-.586.263-.586.574 0 .3.251.395.395.395.323 0 .598-.311.598-.574"/><path id="e" d="M2.463-3.503c.024-.072.323-.67.765-1.052.31-.287.717-.478 1.183-.478.479 0 .646.359.646.837 0 .681-.49 2.044-.73 2.69-.107.287-.167.442-.167.657 0 .538.371.969.945.969 1.112 0 1.53-1.758 1.53-1.83 0-.06-.048-.107-.12-.107-.107 0-.119.036-.179.239-.275.98-.729 1.458-1.195 1.458-.12 0-.311-.012-.311-.394 0-.299.131-.658.203-.825.24-.658.741-1.996.741-2.678 0-.717-.418-1.255-1.327-1.255-1.064 0-1.626.753-1.84 1.052-.037-.682-.527-1.052-1.053-1.052-.382 0-.645.227-.849.633C.49-4.209.323-3.49.323-3.443s.048.108.131.108c.096 0 .108-.012.18-.287.19-.73.406-1.411.884-1.411.275 0 .37.191.37.55 0 .263-.119.73-.202 1.1l-.335 1.29c-.048.228-.18.766-.24.981-.083.311-.214.873-.214.933 0 .167.131.299.31.299a.46.46 0 0 0 .407-.252c.024-.06.131-.478.191-.717l.263-1.076z"/><path id="h" d="M5.452-3.288c0-1.135-.742-1.984-1.83-1.984C2.044-5.272.49-3.551.49-1.865.49-.729 1.231.12 2.32.12c1.59 0 3.132-1.722 3.132-3.408M2.332-.12c-.599 0-1.04-.478-1.04-1.315 0-.55.286-1.769.62-2.367.539-.92 1.208-1.231 1.698-1.231.586 0 1.04.478 1.04 1.315 0 .478-.25 1.757-.705 2.487-.49.8-1.147 1.111-1.614 1.111"/><path id="c" d="M2.726-2.391c.203.036.526.108.598.12.155.047.693.239.693.812 0 .371-.335 1.34-1.722 1.34-.25 0-1.147-.036-1.386-.694.478.06.717-.31.717-.574 0-.25-.167-.382-.407-.382-.263 0-.61.203-.61.74C.61-.322 1.328.12 2.284.12 4.101.12 4.64-1.22 4.64-1.841c0-.18 0-.514-.383-.897-.299-.287-.586-.346-1.231-.478-.323-.072-.837-.18-.837-.717 0-.24.215-1.1 1.35-1.1.503 0 .993.191 1.113.622a.5.5 0 0 0-.55.466c0 .25.227.323.334.323.168 0 .502-.132.502-.634s-.454-1.016-1.386-1.016c-1.566 0-1.985 1.231-1.985 1.721 0 .909.885 1.1 1.16 1.16"/><path id="b" d="M5.667-4.878c-.383.072-.526.359-.526.586 0 .287.227.383.394.383.359 0 .61-.311.61-.634 0-.502-.574-.73-1.076-.73-.73 0-1.136.718-1.243.945-.275-.896-1.017-.944-1.232-.944C1.374-5.272.73-3.706.73-3.443c0 .048.048.108.132.108.095 0 .12-.072.143-.12.407-1.327 1.208-1.578 1.554-1.578.538 0 .646.502.646.789 0 .263-.072.538-.215 1.112l-.407 1.638C2.403-.777 2.056-.12 1.422-.12c-.06 0-.358 0-.609-.155a.62.62 0 0 0 .526-.586c0-.239-.18-.382-.406-.382a.623.623 0 0 0-.598.633c0 .502.562.73 1.076.73.574 0 .98-.455 1.231-.945.191.705.79.945 1.231.945 1.22 0 1.865-1.567 1.865-1.83 0-.06-.047-.107-.12-.107-.107 0-.119.06-.154.155C5.14-.61 4.447-.12 3.909-.12c-.418 0-.645-.31-.645-.8 0-.264.048-.455.239-1.244L3.92-3.79c.18-.717.586-1.243 1.136-1.243.024 0 .359 0 .61.155"/></defs><g transform="translate(-65.342 -61.026)scale(1.13)"><use xlink:href="#a" x="60.93" y="62.1"/><path d="M57.61 66.96h12.73v.48H57.61z"/><use xlink:href="#a" x="57.61" y="78.39"/><use xlink:href="#b" x="63.69" y="78.39"/><use xlink:href="#c" x="71.54" y="70.19"/><use xlink:href="#d" x="77.05" y="70.19"/><use xlink:href="#e" x="81.05" y="70.19"/><use xlink:href="#f" x="88.03" y="70.19"/><use xlink:href="#g" x="92.59" y="70.19"/><use xlink:href="#h" x="97.62" y="70.19"/><use xlink:href="#c" x="103.25" y="70.19"/><use xlink:href="#b" x="108.77" y="70.19"/><use xlink:href="#i" x="115.42" y="70.19"/><use xlink:href="#j" x="123.29" y="70.19"/><use xlink:href="#g" x="135.72" y="70.19"/><use xlink:href="#h" x="140.75" y="70.19"/><use xlink:href="#c" x="146.38" y="70.19"/><use xlink:href="#f" x="151.9" y="70.19"/><use xlink:href="#g" x="156.45" y="70.19"/><use xlink:href="#h" x="161.49" y="70.19"/><use xlink:href="#c" x="167.11" y="70.19"/><use xlink:href="#b" x="172.63" y="70.19"/><use xlink:href="#i" x="179.28" y="70.19"/><use xlink:href="#k" x="186.49" y="70.19"/><use xlink:href="#f" x="195.12" y="70.19"/><use xlink:href="#l" x="199.68" y="70.19"/><use xlink:href="#c" x="208.97" y="70.19"/><use xlink:href="#d" x="214.49" y="70.19"/><use xlink:href="#e" x="218.48" y="70.19"/><use xlink:href="#b" x="225.47" y="70.19"/><use xlink:href="#i" x="232.12" y="70.19"/></g></svg>
